data/zen-maru-gothic.svg

<svg width="100.91" height="20.272" viewBox="0 0 100.91 20.272" xmlns="http://www.w3.org/2000/svg"><path transform="translate(0 16.24) scale(.014 -.014)" d="m80 0q-33 0-33 30v7q0 21 13 41l367 564h-333q-33 0-33 29t33 29h375q33 0 33-29v-7q0-21-13-41l-367-564h350q33 0 33-29 0-30-33-30z"/><path transform="translate(7.728 16.24) scale(.014 -.014)" d="m270-11q-65 0-115.5 30.5t-79 87-28.5 133.5q0 75 28.5 131t78.5 87.5 114 31.5q65 0 110.5-32t69.5-81 24-100q0-18-8.5-25t-24.5-7h-331q-2-90 42.5-145.5t120.5-55.5q94 0 140 85 20 26 41 14 26-17 7-45-63-109-189-109zm-158 308h300q-5 39-24.5 71t-50 51-69.5 19q-61 0-102.5-37.5t-53.5-103.5z"/><path transform="translate(15.064 16.24) scale(.014 -.014)" d="m105 0q-31 0-31 33v413q0 33 29 33t29-22l1-46q23 34 61.5 57t87.5 23q77 0 124-49t47-140v-269q0-33-30-33t-30 33v260q0 70-33.5 105t-86.5 35q-40 0-71.5-17.5t-49-47-17.5-65.5v-270q0-33-30-33z"/><path transform="translate(26.376 16.24) scale(.014 -.014)" d="m115 0q-31 0-31 33v634q0 33 36 33 26 0 39-22l227-339 225 339q8 13 18 17.5t25 4.5q33 0 33-33v-634q0-33-31-33-32 0-32 33v560l-208-315q-13-22-30-22-18 0-31 22l-209 315v-560q0-33-31-33z"/><path transform="translate(37.17 16.24) scale(.014 -.014)" d="m202-9q-70-1-113.5 32t-43.5 96q0 48 32.5 84t83 56.5 104.5 20.5q74 0 117-35v82q0 67-28 87.5t-90 20.5q-33 0-72.5-10t-71.5-26q-30-12-43 9-15 26 16 40 37 19 83.5 31t87.5 12q91 0 134-35t43-129v-265q0-13 5-16t21-3q13 0 22-4.5t9-14.5q0-25-25-29-8-2-17-3t-17-1q-34 0-44 14t-12 53q-31-34-82-50t-99-17zm3 55q48 1 89.5 15t66 40.5 22.5 64.5q-3 31-34 46.5t-80 14.5q-41 0-79-14t-61.5-38.5-23.5-56.5q0-37 28-54.5t72-17.5z"/><path transform="translate(44.66 16.24) scale(.014 -.014)" d="m105 0q-31 0-31 33v413q0 33 32 33 12 0 20.5-6.5t8.5-21.5v-55q20 42 63.5 68.5t96.5 26.5q26 0 41-7.5t15-25.5q0-15-8.5-22t-20.5-6q-7 0-15.5 1t-17.5 1q-42 0-77-19.5t-55.5-52-20.5-73.5v-254q0-33-31-33z"/><path transform="translate(49.924 16.24) scale(.014 -.014)" d="m236-11q-76 0-123 49t-47 140v268q0 33 30 33t30-33v-260q0-70 33.5-105t86.5-35q61 0 99 38t38 93v269q0 33 31 33 30 0 30-33v-412q0-33-28-33-29 0-29 22l-2 45q-21-33-60-56t-89-23z"/><path transform="translate(61.11 16.24) scale(.014 -.014)" d="m372-13q-94 0-167.5 46t-115.5 128-42 190 42 190 115.5 128 167.5 46q63 0 116-19.5t94-56.5q26-21 4-45-18-21-45-1-69 61-169 61-78 0-137-38.5t-92-106.5-33-158q0-89 33-158t92-107.5 137-38.5q55 0 95 11t77 33v208h-117q-33 0-33 30 0 29 33 29h146q33 0 33-33v-246q0-27-14-35-32-19-85.5-38t-134.5-19z"/><path transform="translate(70.532 16.24) scale(.014 -.014)" d="m269-11q-64 0-114 32t-79 88.5-29 130.5 29 130.5 79 88.5 114 32q65 0 115-32t79-88.5 29-130.5-29-130.5-79-88.5-115-32zm0 57q47 0 83.5 24t57.5 67.5 21 102.5-21 102.5-57.5 67.5-83.5 24q-70 0-115.5-52.5t-45.5-141.5q0-88 45.5-141t115.5-53z"/><path transform="translate(78.078 16.24) scale(.014 -.014)" d="m261-11q-64 0-96 27t-32 97v310h-71q-33 0-33 29 0 27 33 27h71v143q0 33 30 33t30-33v-143h113q33 0 33-27 0-29-33-29h-113v-300q0-45 19-61.5t59-16.5q5 0 10.5 0.5t10.5 0.5q20 1 33.5-1.5t13.5-21.5q0-22-24-28t-54-6z"/><path transform="translate(83.356 16.24) scale(.014 -.014)" d="m105 0q-31 0-31 33v656q0 33 31 33 30 0 30-33v-278q21 34 59.5 57t87.5 23q77 0 124-49t47-140v-269q0-33-30-33t-30 33v260q0 70-33.5 105t-86.5 35q-40 0-71.5-17.5t-49-47-17.5-65.5v-270q0-33-30-33z"/><path transform="translate(90.748 16.24) scale(.014 -.014)" d="m121 0q-30 0-30 33v413q0 33 30 33t30-33v-413q0-33-30-33zm0 583q-19 0-33 13.5t-14 32.5q0 20 14 33t33 13 32-13 13-33q0-19-13-32.5t-32-13.5z"/><path transform="translate(94.122 16.24) scale(.014 -.014)" d="m269-11q-64 0-114 31.5t-79 88.5-29 131 29 130.5 79 88 114 31.5q86 0 145-56 13-10 12-22t-12-21q-12-8-21.5-7t-22.5 11q-43 38-101 38-70 0-115.5-52.5t-45.5-140.5 45.5-141 115.5-53q59 0 100 38 12 10 22.5 11.5t22.5-6.5q11-9 12-20.5t-11-22.5q-60-57-146-57z"/></svg>

<?xml version="1.0" encoding="utf-8" ?>
<svg baseProfile="tiny" height="100%" version="1.2" width="100%" xmlns="http://www.w3.org/2000/svg" xmlns:ev="http://www.w3.org/2001/xml-events" xmlns:xlink="http://www.w3.org/1999/xlink"><defs /><g><path d="M80 0Q47 0 47 30V37Q47 58 60 78L427 642H94Q61 642 61 671Q61 700 94 700H469Q502 700 502 671V664Q502 643 489 623L122 59H472Q505 59 505 30Q505 0 472 0Z" transform="translate(0.0, 72) scale(0.072, -0.072)" /><path d="M270 -11Q205 -11 154.5 19.5Q104 50 75.5 106.5Q47 163 47 240Q47 315 75.5 371.0Q104 427 154.0 458.5Q204 490 268 490Q333 490 378.5 458.0Q424 426 448.0 377.0Q472 328 472 277Q472 259 463.5 252.0Q455 245 439 245H108Q106 155 150.5 99.5Q195 44 271 44Q365 44 411 129Q431 155 452 143Q478 126 459 98Q396 -11 270 -11ZM112 297H412Q407 336 387.5 368.0Q368 400 337.5 419.0Q307 438 268 438Q207 438 165.5 400.5Q124 363 112 297Z" transform="translate(39.744, 72) scale(0.072, -0.072)" /><path d="M105 0Q74 0 74 33V446Q74 479 103 479Q132 479 132 457L133 411Q156 445 194.5 468.0Q233 491 282 491Q359 491 406.0 442.0Q453 393 453 302V33Q453 0 423 0Q393 0 393 33V293Q393 363 359.5 398.0Q326 433 273 433Q233 433 201.5 415.5Q170 398 152.5 368.5Q135 339 135 303V33Q135 0 105 0Z" transform="translate(77.472, 72) scale(0.072, -0.072)" /><path d="M115 0Q84 0 84 33V667Q84 700 120 700Q146 700 159 678L386 339L611 678Q619 691 629.0 695.5Q639 700 654 700Q687 700 687 667V33Q687 0 656 0Q624 0 624 33V593L416 278Q403 256 386 256Q368 256 355 278L146 593V33Q146 0 115 0Z" transform="translate(135.648, 72) scale(0.072, -0.072)" /><path d="M202 -9Q132 -10 88.5 23.0Q45 56 45 119Q45 167 77.5 203.0Q110 239 160.5 259.5Q211 280 265 280Q339 280 382 245V327Q382 394 354.0 414.5Q326 435 264 435Q231 435 191.5 425.0Q152 415 120 399Q90 387 77 408Q62 434 93 448Q130 467 176.5 479.0Q223 491 264 491Q355 491 398.0 456.0Q441 421 441 327V62Q441 49 446.0 46.0Q451 43 467 43Q480 43 489.0 38.5Q498 34 498 24Q498 -1 473 -5Q465 -7 456.0 -8.0Q447 -9 439 -9Q405 -9 395.0 5.0Q385 19 383 58Q352 24 301.0 8.0Q250 -8 202 -9ZM205 46Q253 47 294.5 61.0Q336 75 360.5 101.5Q385 128 383 166Q380 197 349.0 212.5Q318 228 269 227Q228 227 190.0 213.0Q152 199 128.5 174.5Q105 150 105 118Q105 81 133.0 63.5Q161 46 205 46Z" transform="translate(191.16, 72) scale(0.072, -0.072)" /><path d="M105 0Q74 0 74 33V446Q74 479 106 479Q118 479 126.5 472.5Q135 466 135 451V396Q155 438 198.5 464.5Q242 491 295 491Q321 491 336.0 483.5Q351 476 351 458Q351 443 342.5 436.0Q334 429 322 430Q315 430 306.5 431.0Q298 432 289 432Q247 432 212.0 412.5Q177 393 156.5 360.5Q136 328 136 287V33Q136 0 105 0Z" transform="translate(229.68, 72) scale(0.072, -0.072)" /><path d="M236 -11Q160 -11 113.0 38.0Q66 87 66 178V446Q66 479 96 479Q126 479 126 446V186Q126 116 159.5 81.0Q193 46 246 46Q307 46 345.0 84.0Q383 122 383 177V446Q383 479 414 479Q444 479 444 446V34Q444 1 416 1Q387 1 387 23L385 68Q364 35 325.0 12.0Q286 -11 236 -11Z" transform="translate(256.752, 72) scale(0.072, -0.072)" /><path d="M372 -13Q278 -13 204.5 33.0Q131 79 89.0 161.0Q47 243 47 351Q47 459 89.0 541.0Q131 623 204.5 669.0Q278 715 372 715Q435 715 488.0 695.5Q541 676 582 639Q608 618 586 594Q568 573 541 593Q472 654 372 654Q294 654 235.0 615.5Q176 577 143.0 509.0Q110 441 110 351Q110 262 143.0 193.0Q176 124 235.0 85.5Q294 47 372 47Q427 47 467.0 58.0Q507 69 544 91V299H427Q394 299 394 329Q394 358 427 358H573Q606 358 606 325V79Q606 52 592 44Q560 25 506.5 6.0Q453 -13 372 -13Z" transform="translate(314.28000000000003, 72) scale(0.072, -0.072)" /><path d="M269 -11Q205 -11 155.0 21.0Q105 53 76.0 109.5Q47 166 47 240Q47 314 76.0 370.5Q105 427 155.0 459.0Q205 491 269 491Q334 491 384.0 459.0Q434 427 463.0 370.5Q492 314 492 240Q492 166 463.0 109.5Q434 53 384.0 21.0Q334 -11 269 -11ZM269 46Q316 46 352.5 70.0Q389 94 410.0 137.5Q431 181 431 240Q431 299 410.0 342.5Q389 386 352.5 410.0Q316 434 269 434Q199 434 153.5 381.5Q108 329 108 240Q108 152 153.5 99.0Q199 46 269 46Z" transform="translate(362.73600000000005, 72) scale(0.072, -0.072)" /><path d="M261 -11Q197 -11 165.0 16.0Q133 43 133 113V423H62Q29 423 29 452Q29 479 62 479H133V622Q133 655 163 655Q193 655 193 622V479H306Q339 479 339 452Q339 423 306 423H193V123Q193 78 212.0 61.5Q231 45 271 45Q276 45 281.5 45.5Q287 46 292 46Q312 47 325.5 44.5Q339 42 339 23Q339 1 315.0 -5.0Q291 -11 261 -11Z" transform="translate(401.54400000000004, 72) scale(0.072, -0.072)" /><path d="M105 0Q74 0 74 33V689Q74 722 105 722Q135 722 135 689V411Q156 445 194.5 468.0Q233 491 282 491Q359 491 406.0 442.0Q453 393 453 302V33Q453 0 423 0Q393 0 393 33V293Q393 363 359.5 398.0Q326 433 273 433Q233 433 201.5 415.5Q170 398 152.5 368.5Q135 339 135 303V33Q135 0 105 0Z" transform="translate(428.68800000000005, 72) scale(0.072, -0.072)" /><path d="M121 0Q91 0 91 33V446Q91 479 121 479Q151 479 151 446V33Q151 0 121 0ZM121 583Q102 583 88.0 596.5Q74 610 74 629Q74 649 88.0 662.0Q102 675 121 675Q140 675 153.0 662.0Q166 649 166 629Q166 610 153.0 596.5Q140 583 121 583Z" transform="translate(466.70400000000006, 72) scale(0.072, -0.072)" /><path d="M269 -11Q205 -11 155.0 20.5Q105 52 76.0 109.0Q47 166 47 240Q47 314 76.0 370.5Q105 427 155.0 458.5Q205 490 269 490Q355 490 414 434Q427 424 426.0 412.0Q425 400 414 391Q402 383 392.5 384.0Q383 385 370 395Q327 433 269 433Q199 433 153.5 380.5Q108 328 108 240Q108 152 153.5 99.0Q199 46 269 46Q328 46 369 84Q381 94 391.5 95.5Q402 97 414 89Q425 80 426.0 68.5Q427 57 415 46Q355 -11 269 -11Z" transform="translate(484.05600000000004, 72) scale(0.072, -0.072)" /></g></svg>
